!!!!SEGMENT: Ano2013-Nil_maius_superi_vident.krn
!!!id: Ano2013
!!!jrpid: Ano2086
!!!AGN: Motet
!!!voices: 5
!!!COM: Anonymous
!!!OTL: Nil maius superi vident
**kern	**kern	**kern	**kern	**kern
*part5	*part4	*part3	*part2	*part1
*staff5	*staff4	*staff3	*staff2	*staff1
*I"Bassus	*I"Tenor II	*I"Tenor I	*I"Altus	*I"Superius
*I'B	*I'T. II	*I'T. I	*I'A	*I'S
*clefF4	*clefGv2	*clefGv2	*clefG2	*clefG2
*k[b-]	*k[b-]	*k[b-]	*k[b-]	*k[b-]
*F:	*F:	*F:	*F:	*F:
*M2/1	*M2/1	*M2/1	*M2/1	*M2/1
*met(C|)	*met(C|)	*met(C|)	*met(C|)	*met(C|)
!!section: Prima pars: Nil maius superi vident
!!!OMD: Prima pars: Nil maius superi vident
0r	0r	0r	1g	0r
.	.	.	[1g	.
=1	=1	=1	=1	=1
0r	0r	0r	2g]	1r
.	.	.	2f	.
.	.	.	2g	1dd
.	.	.	2d	.
=2	=2	=2	=2	=2
0r	0r	0r	1f	1.dd
.	.	.	1e	.
.	.	.	.	2cc
=3	=3	=3	=3	=3
0r	0r	0r	1d	2dd
.	.	.	.	2a
.	.	.	2r	1cc
.	.	.	[2a	.
=4	=4	=4	=4	=4
0r	0r	0r	2a]	1b-y
.	.	.	2g	.
.	.	.	2f	1a
.	.	.	2d	.
=5	=5	=5	=5	=5
0r	0r	0r	1f	2r
.	.	.	.	1a
.	.	.	2e	.
.	.	.	2e	2g
=6	=6	=6	=6	=6
0r	1r	0r	0d	2f
.	.	.	.	2d
.	2r	.	.	1f
.	[2d	.	.	.
=7	=7	=7	=7	=7
0r	2d]	0r	2r	2e
.	2c	.	1g	2e
.	2B-y	.	.	1d
.	2G	.	2g	.
=8	=8	=8	=8	=8
0r	1B-y	0r	2f	2r
.	.	.	2d	1dd
.	2A	.	1f	.
.	2A	.	.	2cc
=9	=9	=9	=9	=9
2r	1G	0r	2g	2b-y
1G	.	.	2g	2g
.	2r	.	1d	1b-y
2G	[2d	.	.	.
=10	=10	=10	=10	=10
2F	2d]	0r	2r	2.a
2D	2d	.	2f	.
.	.	.	.	4g
1F	2c	.	2f	4a
.	.	.	.	4b-y
.	2A	.	2f	[2a
=11	=11	=11	=11	=11
2G	1B-y	0r	0d	4a]
.	.	.	.	4g
2G	.	.	.	1g
1D	2A	.	.	.
.	2A	.	.	2f#i
=12	=12	=12	=12	=12
0r	2.G	0G	0d	2g
.	.	.	.	2g
.	4A	.	.	.
.	1B-y	.	.	2g
.	.	.	.	2g
=13	=13	=13	=13	=13
1D	2r	0A	0r	1f
.	2d	.	.	.
2D	2d	.	.	2d
2D	2d	.	.	[2a
=14	=14	=14	=14	=14
1A	1c	0F	0r	2a]
.	.	.	.	2a
1D	2A	.	.	1a
.	[2d	.	.	.
=15	=15	=15	=15	=15
1.E	2d]	0G	2r	0r
.	4c#i	.	2g	.
.	4BnXi	.	.	.
.	2c#i	.	2g	.
2E	2c#i	.	2g	.
=16	=16	=16	=16	=16
1D	0d	0A	1f	2r
.	.	.	.	2a
2r	.	.	2d	2a
2D	.	.	[2a	2a
=17	=17	=17	=17	=17
2D	2r	0B-y	2a]	1f
2D	1d	.	4g	.
.	.	.	4f	.
1G	.	.	2g	2d
.	2d	.	2g	[2dd
=18	=18	=18	=18	=18
1D	1f	0A	0a	2dd]
.	.	.	.	4cc#i
.	.	.	.	4bnXi
1r	1e	.	.	2cc#i
.	.	.	.	2cc#i
=19	=19	=19	=19	=19
0G	1d	0B-y	2r	0dd
.	.	.	2g	.
.	2r	.	1g	.
.	2d	.	.	.
=20	=20	=20	=20	=20
1G	1d	0B-y	1g	2r
.	.	.	.	2dd
1G	1g	.	[1d	1dd
=21	=21	=21	=21	=21
2.D	1f	0A	2d]	0ff
.	.	.	2.f	.
4E	.	.	.	.
2.F	2.c	.	.	.
.	.	.	4e	.
.	.	.	[2c	.
4E	4d	.	.	.
=22	=22	=22	=22	=22
1.C	4e	0G	4c]	1.ee
.	4f	.	4d	.
.	2.g	.	4e	.
.	.	.	4f	.
.	.	.	4e	.
.	4f	.	4f	.
2C	[2e	.	[2g	2cc
=23	=23	=23	=23	=23
2.G	2e]	0G	1g]	4dd
.	.	.	.	4cc
.	1d	.	.	4b-y
4F	.	.	.	4a
1E	.	.	1g	2g
.	2c#i	.	.	2cc
=24	=24	=24	=24	=24
1D	0d	0r	0f	2b-y
.	.	.	.	2.a
2r	.	.	.	.
.	.	.	.	4g
2D	.	.	.	4f
.	.	.	.	4e
=25	=25	=25	=25	=25
0D	2r	0r	2r	0d
.	2A	.	2f	.
.	[1A	.	1f	.
=26	=26	=26	=26	=26
1C	1A]	0r	1e	0r
[1E-X	1G	.	[1g	.
=27	=27	=27	=27	=27
2E-]	1.B-y	0r	2g]	1r
2D	.	.	2f	.
2BB-y	.	.	2.d	2r
[2D	2A	.	.	2a
.	.	.	4e	.
=28	=28	=28	=28	=28
4D]	4F	0r	0f	0a
4E	4G	.	.	.
1F	4A	.	.	.
.	4B-y	.	.	.
.	2c	.	.	.
4E	2d	.	.	.
4D	.	.	.	.
=29	=29	=29	=29	=29
0E-X	2B-y	0r	1r	1g
.	2c	.	.	.
.	4G	.	2r	[1b-y
.	4A	.	.	.
.	4B-y	.	[2g	.
.	4c	.	.	.
=30	=30	=30	=30	=30
0D	2.d	0r	2g]	2b-]
.	.	.	2f	2a
.	4c	.	.	.
.	1A	.	2d	4f
.	.	.	.	4g
.	.	.	[2f	4a
.	.	.	.	4b-y
=31	=31	=31	=31	=31
0r	1r	0r	2f]	2cc
.	.	.	4e	1dd
.	.	.	4d	.
.	1A	.	1e	.
.	.	.	.	2cc#i
=32	=32	=32	=32	=32
1G	2.B-y	0r	1d	0dd
.	4c	.	.	.
1B-y	2d	.	2r	.
.	2G	.	2d	.
=33	=33	=33	=33	=33
1.A	2r	0r	1f	0r
.	1c	.	.	.
.	.	.	[1e	.
2G	2B-y	.	.	.
=34	=34	=34	=34	=34
2A	2c	0r	2e]	0r
2B-y	2d	.	2d	.
[1A	2.c	.	2e	.
.	.	.	2f	.
.	4B-y	.	.	.
=35	=35	=35	=35	=35
2A]	2c	0r	2.e	0r
4G	1d	.	.	.
4F	.	.	4d	.
2G	.	.	2e	.
2A	2c	.	[2f	.
=36	=36	=36	=36	=36
0D	1d	0d	4f]	2r
.	.	.	4e	.
.	.	.	4d	2a
.	.	.	4c	.
.	2r	.	2d	2a
.	2A	.	2d	2a
=37	=37	=37	=37	=37
2r	2A	0e	1c	1cc
2C	2A	.	.	.
2C	2.c	.	2r	2g
2C	.	.	2g	2cc
.	4B-y	.	.	.
=38	=38	=38	=38	=38
1F	4A	0c	2a	4cc
.	4G	.	.	4b-y
.	2A	.	2f	4cc
.	.	.	.	4dd
1C	1G	.	2g	2ee-i
.	.	.	2g	[2cc
=39	=39	=39	=39	=39
1F	2A	0d	2.f	2cc]
.	2F	.	.	4b-y
.	.	.	4e	4a
1G	2.B-y	.	2d	1b-y
.	.	.	[2g	.
.	4A	.	.	.
=40	=40	=40	=40	=40
0C	1G	0e	4g]	1cc
.	.	.	4f	.
.	.	.	4e	.
.	.	.	4d	.
.	1r	.	1c	[1cc
=41	=41	=41	=41	=41
2r	1F	0f	2r	1cc]
2F	.	.	2a	.
1F	1A	.	1a	1cc
=42	=42	=42	=42	=42
1.C	1.c	0e	1.g	1.cc
2C	2c	.	2g	2cc
=43	=43	=43	=43	=43
1F	1A	0f	1a	1cc
1F	1A	.	1a	1cc
=44	=44	=44	=44	=44
0BB-y	0B-y	0f	0d	0dd
=45	=45	=45	=45	=45
0C	1G	0e	2g	1cc
.	.	.	1c	.
.	1G	.	.	2r
.	.	.	2c	[2g
=46	=46	=46	=46	=46
2r	2G	0d	2.B-y	2g]
1G	2.B-y	.	.	2g
.	.	.	4A	.
.	.	.	2G	2.b-y
.	4A	.	.	.
2G	[2G	.	[2B-y	.
.	.	.	.	4a
=47	=47	=47	=47	=47
2.B-y	2G]	[0dl	4B-]	2g
.	.	.	4c	.
.	1B-y	.	2.d	2f
4A	.	.	.	.
2G	.	.	.	2g
.	.	.	4e	.
2F	2A	.	4f	[2a
.	.	.	4e	.
=48	=48	=48	=48	=48
1G	1B-y	0d_	4d	4a]
.	.	.	4c	4g
.	.	.	2.d	1g
1D	1A	.	.	.
.	.	.	4c	.
.	.	.	2A	2f#i
=49	=49	=49	=49	=49
0r	1r	0d_	2B-y	1g
.	.	.	2G	.
.	1G	.	2G	2r
.	.	.	[2B-y	[2g
=50	=50	=50	=50	=50
2r	2G	0d_	4B-]	2g]
.	.	.	4A	.
1G	2.B-y	.	1G	2g
.	.	.	.	2.b-y
.	4A	.	.	.
2G	[2G	.	[2B-y	.
.	.	.	.	4a
=51	=51	=51	=51	=51
2.B-y	2G]	0d_	4B-]	2g
.	.	.	4c	.
.	1B-y	.	2.d	2f
4A	.	.	.	.
2G	.	.	.	2g
.	.	.	4e	.
2F	2A	.	4f	[2a
.	.	.	4e	.
=52	=52	=52	=52	=52
1G	1B-y	0d_	4d	4a]
.	.	.	4c	4g
.	.	.	2.d	1g
1D	1A	.	.	.
.	.	.	4c	.
.	.	.	2A	2f#i
=53	=53	=53	=53	=53
00G	00G	00d]	00B-y	00g
=54||	=54||	=54||	=54||	=54||
*M2/1	*M2/1	*M2/1	*M2/1	*M2/1
*met(C|)	*met(C|)	*met(C|)	*met(C|)	*met(C|)
!!section: Secunda pars: Ille Musarum naufragos
!!!OMD: Secunda pars: Ille Musarum naufragos
0G	0d	0G	0g	0b-y
=55	=55	=55	=55	=55
1D	1d	0A	1.f#X	1a
1D	1d	.	.	1a
.	.	.	2f#i	.
=56	=56	=56	=56	=56
1D	1d	0F	1a	1dd
1F	1A	.	1a	2cc
.	.	.	.	[2ff
=57	=57	=57	=57	=57
1.C	1.c	0G	1g	2ff]
.	.	.	.	4ee
.	.	.	.	4dd
.	.	.	1g	2ee
2C	2c	.	.	2ee
=58	=58	=58	=58	=58
0F	1c	0A	0f	2ff
.	.	.	.	2cc
.	2r	.	.	2cc
.	2f	.	.	2cc
=59	=59	=59	=59	=59
0BB-y	2f	0B-y	0r	2.dd
.	2f	.	.	.
.	.	.	.	4ee
.	2.d	.	.	2ff
.	.	.	.	[2dd
.	4e	.	.	.
=60	=60	=60	=60	=60
0r	1f	0A	0r	2dd]
.	.	.	.	4cc
.	.	.	.	4b-y
.	1e	.	.	1cc
=61	=61	=61	=61	=61
2r	2d	0B-y	2r	0dd
2BB-y	2d	.	2f	.
2BB-y	2d	.	2f	.
2BB-y	2d	.	2f	.
=62	=62	=62	=62	=62
2.E-X	1e-X	0B-y	2.g	0r
4F	.	.	4a	.
1G	2d	.	2b-y	.
.	[2d	.	[2g	.
=63	=63	=63	=63	=63
0D	2d]	0A	2g]	0dd
.	4c	.	4f#i	.
.	4B-y	.	4e	.
.	2A	.	1f#i	.
.	2d	.	.	.
=64	=64	=64	=64	=64
1G	2.B-y	0G	1g	0dd
.	4c	.	.	.
1r	1d	.	2r	.
.	.	.	2g	.
=65	=65	=65	=65	=65
0r	0r	0G	2g	1dd
.	.	.	2g	.
.	.	.	1b-y	1gg
=66	=66	=66	=66	=66
0r	0r	0r	2.a	2.ff
.	.	.	4g	4ee
.	.	.	2f	2dd
.	.	.	2e	2cc
=67	=67	=67	=67	=67
0B-y	0f	0r	1d	1dd
.	.	.	2r	1b-y
.	.	.	2d	.
=68	=68	=68	=68	=68
1B-y	1d	0r	1f	1b-y
1G	1d	.	1g	1b-y
=69	=69	=69	=69	=69
1.A	1.c	0r	2.e	2a
.	.	.	.	2b-y
.	.	.	4d	.
.	.	.	2e	2cc
2F	2c	.	2f	[2a
=70	=70	=70	=70	=70
1G	1B-y	0r	1d	4a]
.	.	.	.	4g
.	.	.	.	1g
1D	1A	.	1d	.
.	.	.	.	2f#i
=71	=71	=71	=71	=71
1C	1c	0r	0e	0g
2r	2r	.	.	.
2C	2c	.	.	.
=72	=72	=72	=72	=72
2D	2A	1d	1r	0r
2BB-y	2B-y	.	.	.
1C	1G	1e	1g	.
=73	=73	=73	=73	=73
1F	1F	1c	1a	1cc
1r	2r	1d	2f	2a
.	2G	.	[2g	2b-y
=74	=74	=74	=74	=74
1C	2.c	1e	2g]	1g
.	.	.	2c	.
.	4B-y	.	.	.
2D	2A	1f	1r	1f
2BB-y	2B-y	.	.	.
=75	=75	=75	=75	=75
1C	1G	1e	1g	1r
1F	2F	1f	1a	1cc
.	2c	.	.	.
=76	=76	=76	=76	=76
1r	2d	1f	2f	2a
.	2B-y	.	2d	2b-y
1C	1c	1e	2.c	1g
.	.	.	4B-y	.
=77	=77	=77	=77	=77
1D	1F	1d	1A	2f
.	.	.	.	2a
1BB-y	2.B-y	1d	1r	2g
.	.	.	.	[2f
.	4A	.	.	.
=78	=78	=78	=78	=78
1C	1G	0r	1g	2f]
.	.	.	.	2e
1c	1F	.	1a	1f
=79	=79	=79	=79	=79
2.B-y	0r	0r	2g	1r
.	.	.	2.f	.
4A	.	.	.	.
1G	.	.	.	1b-y
.	.	.	8eL	.
.	.	.	8dJ	.
.	.	.	2e	.
=80	=80	=80	=80	=80
1F	1r	0r	1f	2a
.	.	.	.	2f
1F	1f	.	1a	[1cc
=81	=81	=81	=81	=81
1.c	1.e	0r	2g	2cc]
.	.	.	2g	2cc
.	.	.	2.a	2cc
2A	2c	.	.	2cc
.	.	.	4g	.
=82	=82	=82	=82	=82
2.B-y	2d	0r	2f	1b-y
.	2f	.	2f	.
4A	.	.	.	.
2G	2f	.	1g	1b-y
2G	2e	.	.	.
=83	=83	=83	=83	=83
1F	2f	0r	2r	0a
.	2f	.	2c	.
2r	2f	.	2.d	.
2F	2f	.	.	.
.	.	.	4c	.
=84	=84	=84	=84	=84
2G	2e	1G	2B-y	1r
2G	1d	.	2B-y	.
2.F	.	1A	2A	2r
.	2c	.	2a	2ff
4E	.	.	.	.
=85	=85	=85	=85	=85
2D	1d	1F	2a	2ff
2D	.	.	2a	2ff
2G	1B-y	1G	1b-y	2ee
2G	.	.	.	[2dd
=86	=86	=86	=86	=86
2.F	2r	1A	2.a	2dd]
.	1f	.	.	2cc
4E	.	.	4g	.
2D	.	1B-y	2f	2dd
[2G	2d	.	2g	2b-y
=87	=87	=87	=87	=87
2G]	2e	1A	1a	2cc
2F	2f	.	.	2.dd
[1G	2d	1B-y	1g	.
.	.	.	.	4cc
.	4G	.	.	[2b-y
.	4A	.	.	.
=88	=88	=88	=88	=88
2G]	4B-y	1B-y	1.d	4b-]
.	4c	.	.	4a
2G	2.d	.	.	1g
1D	.	1A	.	.
.	4c	.	.	.
.	2A	.	2d	2f#i
=89	=89	=89	=89	=89
1r	1B-y	1G	1d	[0gl
[1E-X	1G	[1Gl	1B-y	.
=90	=90	=90	=90	=90
2E-]	1.c	0G_	1.e-X	0g_
2C	.	.	.	.
1C	.	.	.	.
.	2c	.	2e-i	.
=91	=91	=91	=91	=91
00Gl	00B-yl	00G]	00dl	00g]
==	==	==	==	==
*-	*-	*-	*-	*-
!!!system-decoration: [*]
!!!RDF**kern: i = editorial accidental
!!!RDF**kern: l = terminal long
!!!ENC: Benjamin Ory
!!!END: 2024/6/3
!!!EED: Benjamin Ory
!!!EEV: 2024/06/03
!!!YEC: Copyright 2024 Benjamin Ory, All Rights Reserved
!!!ONB: Translated from MusicXML on 2024/06/03
